X: 1
T:Humors of Ross (#111), The
M:6/8
L:1/8
S:O'Farrell's Pocket Companion 1804-10
K:G
d/2c/2|BGB AFA|BGB Bdc|BGB A2 G|FGA Bdc|
BGB AFA|BGB BdB|c2 c cec|AFA ABc:|
|:Bdd d2 e|dBG ABc|Bdd d2 B|AFA ABc|
Bdd dge|dBG BdB|cec BdB|AFA ABc:|
|:BGG BGd|BGG ABc|BGG BGd|AFA ABc|
BGG dGG|BGG BdB|cec BdB|AFA ABc:|
|:Bdd dBg|dBG ABc|Bdd dcB|AFA ABc|
B2 d c2 e|dBG BdB|cec BdB|AFA ABc:||

